symbolic/24x24/places/folder-indigo-games.svg

<svg xmlns="http://www.w3.org/2000/svg" width="24" height="24" version="1">
 <rect style="opacity:0.2" width="20" height="12" x="2" y="9.5" rx="1" ry="1"/>
 <path style="fill:#3f51b5" d="M 2,17 C 2,17.554 2.446,18 3,18 H 21 C 21.554,18 22,17.554 22,17 V 6 C 22,5.446 21.554,5 21,5 H 12 C 10.5,5 10,3 8.5,3 H 3 C 2.446,3 2,3.446 2,4"/>
 <rect style="opacity:0.2" width="20" height="12" x="2" y="8.5" rx="1" ry="1"/>
 <rect style="fill:#e4e4e4" width="16" height="8" x="4" y="7" rx="1" ry="1"/>
 <rect style="fill:#5c6bc0" width="20" height="12" x="2" y="9" rx="1" ry="1"/>
 <path style="opacity:0.1;fill:#ffffff" d="M 3,3 C 2.446,3 2,3.446 2,4 V 4.5 C 2,3.946 2.446,3.5 3,3.5 H 8.5 C 10,3.5 10.5,5.5 12,5.5 H 21 C 21.554,5.5 22,5.946 22,6.5 V 6 C 22,5.446 21.554,5 21,5 H 12 C 10.5,5 10,3 8.5,3 Z"/>
 <path style="fill:#202543" d="M 14.117 12 C 13.997 12.001 13.887 12.039 13.783 12.113 C 13.52 12.302 12.969 12.503 12 12.504 C 11.03 12.505 10.48 12.302 10.217 12.113 C 10.113 12.039 10.014 12.003 9.8926 12.004 C 9.7714 12.004 9.6327 12.037 9.4902 12.113 C 8.9714 12.387 8.4938 13.283 8.2344 14.445 C 8.0132 15.433 7.9326 16.783 8.0645 17.326 C 8.1795 17.793 8.3784 18 8.7305 18 C 9.2535 17.991 9.9096 17.409 10.326 16.623 C 10.628 16.188 11.326 15.99 12 16.012 C 12.674 15.988 13.372 16.188 13.674 16.623 C 14.091 17.408 14.747 17.991 15.27 18 C 15.622 18 15.821 17.793 15.936 17.326 C 16.067 16.783 15.987 15.433 15.766 14.445 C 15.507 13.283 15.03 12.387 14.512 12.113 C 14.369 12.037 14.238 11.999 14.117 12 z M 10 13 A 1 1 0 0 1 11 14 A 1 1 0 0 1 10 15 A 1 1 0 0 1 9 14 A 1 1 0 0 1 10 13 z M 13.5 13 A 0.5001 0.49995 0 0 1 14 13.5 A 0.5001 0.49995 0 0 1 13.5 14 A 0.5001 0.49995 0 0 1 13 13.5 A 0.5001 0.49995 0 0 1 13.5 13 z M 14.5 14 A 0.5001 0.49995 0 0 1 15 14.5 A 0.5001 0.49995 0 0 1 14.5 15 A 0.5001 0.49995 0 0 1 14 14.5 A 0.5001 0.49995 0 0 1 14.5 14 z"/>
</svg>

<svg xmlns="http://www.w3.org/2000/svg" width="24" height="24" version="1"><rect style="opacity:.2" width="20" height="12" x="2" y="9.5" rx="1" ry="1"/><path style="fill:#3f51b5" d="M2 17c0 .554.446 1 1 1h18c.554 0 1-.446 1-1V6c0-.554-.446-1-1-1h-9c-1.5 0-2-2-3.5-2H3c-.554 0-1 .446-1 1"/><rect style="opacity:.2" width="20" height="12" x="2" y="8.5" rx="1" ry="1"/><rect style="fill:#e4e4e4" width="16" height="8" x="4" y="7" rx="1" ry="1"/><rect style="fill:#5c6bc0" width="20" height="12" x="2" y="9" rx="1" ry="1"/><path style="opacity:.1;fill:#fff" d="M3 3c-.554 0-1 .446-1 1v.5c0-.554.446-1 1-1h5.5c1.5 0 2 2 3.5 2h9c.554 0 1 .446 1 1V6c0-.554-.446-1-1-1h-9c-1.5 0-2-2-3.5-2z"/><path style="fill:#202543" d="M14.117 12a.572.572 0 0 0-.334.113c-.263.189-.814.39-1.783.391-.97.001-1.52-.202-1.783-.391a.524.524 0 0 0-.324-.109.863.863 0 0 0-.403.109c-.519.274-.996 1.17-1.256 2.332-.22.988-.301 2.338-.17 2.881.116.467.314.674.666.674.524-.009 1.18-.591 1.596-1.377.302-.435 1-.633 1.674-.611.674-.024 1.372.176 1.674.611.417.785 1.073 1.368 1.596 1.377.352 0 .551-.207.666-.674.131-.543.051-1.893-.17-2.881-.259-1.162-.736-2.058-1.254-2.332a.836.836 0 0 0-.395-.113zM10 13a1 1 0 0 1 1 1 1 1 0 0 1-1 1 1 1 0 0 1-1-1 1 1 0 0 1 1-1zm3.5 0a.5.5 0 0 1 .5.5.5.5 0 0 1-.5.5.5.5 0 0 1-.5-.5.5.5 0 0 1 .5-.5zm1 1a.5.5 0 0 1 .5.5.5.5 0 0 1-.5.5.5.5 0 0 1-.5-.5.5.5 0 0 1 .5-.5z"/></svg>
